X: 23
T: Wind That Shakes The Barley, The
Z: UPipes & harp
S: https://thesession.org/tunes/116#setting46465
R: reel
M: 4/4
L: 1/8
K: Dmaj
A2AB AFED|B2BA BcdB|A2AB ABde|fded BcdB|
A2AB AFED|B2BA BcdB|A2AB ABde|fded Bcde||
f2fd g2ge|f2fd Bcde|f2fd a2ab|afed Bcde|
f2fd g2ge|f2fd Bcde|defg a2ab|afed BcdB||

